!!!OTL: ES IST EIN WIRTHSHAUS AN DEM RHEIN
!!!ARE: Europa, Mitteleuropa, Deutschland, Rheinland
!!!SCT: Z0014
!!!YEM: Copyright 1995, estate of Helmut Schaffrath.
**kern
*ICvox
*Ivox
!! Mixed meters:  2/4; 3/8
*M2/4
*k[b-]
*F:
=1
{4c
8f
8a
=2
4.cc
8a
=3
*M3/8
8g
8a
8g
=4
4.f}
=5
*M2/4
{4ff
8ee
8dd
=6
4cc
4cc
=7
*M3/8
8b-
8dd
8cc
=8
4.cc}
=9
*M2/4
{4c
8f
8a
=10
4.cc
8a
=11
*M3/8
8g
8a
8g
=12
4.f}
=13
*M2/4
{4ff
8ee
8dd
=14
4cc
4cc
=15
*M3/8
8b-
8dd
8cc
=16
4.cc
=17
*M2/4
4r}
{4cc
=18
8a
8cc
16cc
16cc
16cc
16cc
=19
8ff
8ff
8dd
8dd}
=20
{8dd
8dd
16dd
16ff
16ee
16dd
=21
*M3/8
8dd
8cc
8cc}
=22
{8cc
=23
*M2/4
8cc
8cc
16dd
16cc
16b-
16a
=24
4b-
4cc
=25
4f
4r}
==
!!!AGN: Sagen - Lied, Romanze
!!!ONB: ESAC (Essen Associative Code) Database: ZUCCAL
!!!AMT: irregular
!!!AIN: vox
!!!EED: Helmut Schaffrath
!!!EEV: 1.0
*-
